X: 1
T:Kesh Jig, The
R:double jig
M:6/8
L:1/8
K:G
D|GGG GAB|AAA ABd|edd gdd|edB dBA|!
GGG GAB|AAA ABd|edd gdB|AGF G2:|!
A|BBB d^cd|ege dBG|BBB dBG|ABA AGA|!
BBB d^cd|ege dBd|gfg aga bgg g2:|
